X: 5157
T: Bright Love Of My Heart, The
R: waltz
M: 3/4
K: Gminor
d>c|(B2A2G2)|(F2D3C)|(B,3 CDE)|(F2G2A2)|(B2A2G2)|(d3 cBA)|
(G2A2G2)|F2D2 (d>c)|(B2A2G2)|(F2D3C)|(B,3 CDE)|(F2G2A2)|
B3 (c c/=e/^f)|g4 (dc)|(B2G2) .G2|G4||(G>A)|(B3 cd=e)|f2d2f2|
(g3 aba)|g2f2 (ga)|(b2a2g2)|(f2d2c2)|d2g2 {b}a2|g4 (b>a)|.g.b.a.g.f.e|
d4 (dc)|(B2A2G2)|F2D2 (GA)|B3 (c d/=e/^f)|g4 dc|(B2G2) G2|G4||

